src/main/resources/icons/AllIcons/toolwindows/webToolWindow_dark.svg

<!-- Copyright 2000-2021 JetBrains s.r.o. Use of this source code is governed by the Apache 2.0 license that can be found in the LICENSE file. -->
<svg xmlns="http://www.w3.org/2000/svg" width="13" height="13" viewBox="0 0 13 13">
  <path fill="#AFB1B3" d="M6.5,0.8125 C3.3605,0.8125 0.8125,3.3605 0.8125,6.5 C0.8125,9.6395 3.3605,12.1875 6.5,12.1875 C9.6395,12.1875 12.1875,9.6395 12.1875,6.5 C12.1875,3.3605 9.6395,0.8125 6.5,0.8125 Z M5.93125,11.0101875 C3.6846875,10.7315 1.95,8.8205 1.95,6.5 C1.95,6.147375 1.9955,5.8118125 2.0694375,5.4819375 L4.79375,8.20625 L4.79375,8.775 C4.79375,9.400625 5.305625,9.9125 5.93125,9.9125 L5.93125,11.0101875 Z M9.855625,9.5655625 C9.70775,9.104875 9.286875,8.775 8.775,8.775 L8.20625,8.775 L8.20625,7.06875 C8.20625,6.7559375 7.9503125,6.5 7.6375,6.5 L4.225,6.5 L4.225,5.3625 L5.3625,5.3625 C5.6753125,5.3625 5.93125,5.1065625 5.93125,4.79375 L5.93125,3.65625 L7.06875,3.65625 C7.694375,3.65625 8.20625,3.144375 8.20625,2.51875 L8.20625,2.2855625 C9.8726875,2.962375 11.05,4.5946875 11.05,6.5 C11.05,7.683 10.595,8.7579375 9.855625,9.5655625 Z"/>
</svg>

<svg xmlns="http://www.w3.org/2000/svg" width="13" height="13" viewBox="0 0 13 13"><rect id="frame" width="13" height="13" fill="none"/><path fill="#AFB1B3" d="M6.5.813A5.69 5.69 0 0 0 .812 6.5 5.69 5.69 0 0 0 6.5 12.188 5.69 5.69 0 0 0 12.188 6.5 5.69 5.69 0 0 0 6.5.812zM5.931 11.01A4.543 4.543 0 0 1 1.95 6.5c0-.353.046-.688.12-1.018l2.724 2.724v.569A1.14 1.14 0 0 0 5.93 9.912v1.098zm3.925-1.444a1.128 1.128 0 0 0-1.081-.791h-.569V7.069a.57.57 0 0 0-.568-.569H4.225V5.362h1.138a.57.57 0 0 0 .568-.568V3.656H7.07A1.14 1.14 0 0 0 8.206 2.52v-.233A4.553 4.553 0 0 1 11.05 6.5a4.526 4.526 0 0 1-1.194 3.066z"/></svg>
